build/img/icon/telegram.svg

<svg width="44.000000" height="44.000000" viewBox="0 0 44 44" fill="none" xmlns="http://www.w3.org/2000/svg" xmlns:xlink="http://www.w3.org/1999/xlink">
	<desc>
			Created with Pixso.
	</desc>
	<defs>
		<clipPath id="clip42_1103">
			<rect id="mingcute:telegram-fill" width="22.000000" height="22.000000" transform="translate(11.000000 11.000000)" fill="white" fill-opacity="0"/>
		</clipPath>
	</defs>
	<rect id="Social_icon" rx="22.000000" width="44.000000" height="44.000000" fill="#FCFCFC" fill-opacity="0.100000"/>
	<rect id="mingcute:telegram-fill" width="22.000000" height="22.000000" transform="translate(11.000000 11.000000)" fill="#FFFFFF" fill-opacity="0"/>
	<g clip-path="url(#clip42_1103)">
		<path id="Vector" d="M28.6887 14.762C28.9152 14.6667 29.1631 14.6338 29.4067 14.6667C29.6503 14.6997 29.8805 14.7974 30.0735 14.9497C30.2665 15.1018 30.4152 15.303 30.504 15.532C30.5929 15.7612 30.6187 16.01 30.5789 16.2524L28.4998 28.863C28.2982 30.0796 26.9635 30.7771 25.848 30.1711C24.9148 29.6643 23.5288 28.8833 22.2821 28.0684C21.6588 27.6604 19.7494 26.3542 19.984 25.4246C20.1857 24.6299 23.394 21.6433 25.2274 19.8679C25.947 19.1702 25.6188 18.7678 24.769 19.4094C22.658 21.0027 19.2709 23.4253 18.1507 24.1074C17.1625 24.7087 16.6474 24.8113 16.0314 24.7087C14.9075 24.5217 13.8653 24.2322 13.0146 23.8792C11.8651 23.4026 11.921 21.822 13.0137 21.3621L28.6887 14.762Z" fill="#FCFCFC" fill-opacity="1.000000" fill-rule="evenodd"/>
	</g>
</svg>

<svg width="44" height="44" viewBox="0 0 44 44" fill="none" xmlns="http://www.w3.org/2000/svg"><defs><clipPath id="clip42_1103"><path id="mingcute:telegram-fill" transform="translate(11 11)" fill="#fff" fill-opacity="0" d="M0 0h22v22H0z"/></clipPath></defs><rect id="Social_icon" rx="22" width="44" height="44" fill="#FCFCFC" fill-opacity=".1"/><path id="mingcute:telegram-fill" transform="translate(11 11)" fill="#FFF" fill-opacity="0" d="M0 0h22v22H0z"/><g clip-path="url(#clip42_1103)"><path id="Vector" d="M28.689 14.762c.226-.095.474-.128.718-.095a1.374 1.374 0 011.172 1.585l-2.08 12.611c-.2 1.217-1.535 1.914-2.651 1.308-.933-.507-2.32-1.288-3.566-2.103-.623-.408-2.533-1.714-2.298-2.643.202-.795 3.41-3.782 5.243-5.557.72-.698.392-1.1-.458-.459-2.111 1.594-5.498 4.016-6.618 4.698-.988.602-1.504.704-2.12.602-1.123-.187-2.166-.477-3.016-.83-1.15-.476-1.094-2.057-.001-2.517l15.675-6.6z" fill="#FCFCFC" fill-opacity="1" fill-rule="evenodd"/></g></svg>
